X: 147101
T: LOCHIEL'S MARCH
R: March.
%R: march
B: James Kerr "Merry Melodies" v.1 p.47 s.1 #1
Z: 2016 John Chambers <jc:trillian.mit.edu>
N: The double bar line after bar 12 is wrong; it belongs after bar 16.
M: C
L: 1/8
K: Ador
|: (gf) |\
e2A2 A2(Bd) | edef gedB |\
G2G2 B2(AG) | B2d2 d2(gf) |\
e2A2 A2(Bd) | edef gedB |\
A2A2 B2(AG) | g2e2e2 :|\
ug2 |\
dBde g2(fe) | abag gfed |\
g2d2 edcB | g2d2 d2e2 ||
dBde g2(fe) | abag gfed |\
g2e2 fede | g2e2 e2g2 |\
dBde g2(fe) | abag gfed |\
g2d2 edcB | g2d2 d2(fg) |\
a2fa g2eg | f2df (fe)dB |\
A2A2 cBAG | g2e2e2 |]

%%sep 1 1 500
%%sep 1 1 500

